X:1
T:Wear a Smile for Jesus
T:Wear a Smile for Jesus
T:Charles Hutchinson Gabriel
T:Maggie A. Pulver, 1910
T:Public Domain Courtesy of the Cyber Hymnal™
T:Public Domain Courtesy of the Cyber Hymnal™
C:Charles Hutchinson Gabriel
Z:Public Domain
Z:Courtesy of the Cyber Hymnal™
%%score 1 ( 2 3 )
L:1/8
Q:1/4=110
M:6/8
K:Ab
V:1 treble 
V:2 bass 
V:3 bass 
V:1
 [Ec]2 [Ec] [DB]2 [CA] | [Ec]2 [Ec] [DB]2 [CA] | [CE]3 [=B,F]3 | [CE]3- [CE]2 z | %4
w: 1.~Wear a smile for|Je- sus, as you|pass a-|long, *|
w: 2.~Wear a smile for|Je- sus, speak a|word of|cheer; *|
w: 3.~Wear a smile for|Je- sus— do not|stop to|weep; *|
 [DA]2 [DG] [DG]2 [DB] | [CB]2 [CA] [CA]2 [Ec] | [=DF]3 [DB]3 | [DB]3- [DB]2 z | %8
w: Cheer this world of|sor- row with a|hap- py|song; *|
w: Ma- ny hearts are|sigh- ing ’neath their|bur- dens|here; *|
w: Tho’ some dis- ap-|point- ment o’er your|path- way|creep, *|
 [Ec]2 [Ec] [DB]2 [CA] | [Ec]2 [Ec] [EB]2 [EA] | [DF]3 [_GA]3 | [Fd]3- [Fd]2 z [Ec]2 | %12
w: If a cloud should|low- er, hid- ing|all the|blue, * Smiles|
w: Like the spark- ling|dew- drops on the|droop- ing|flow’rs, * Smiles|
w: Smiles will light- en|la- bor, soothe and|ban- ish|care; * Scat-|
 [Ec] [EB]2 [EB] x2 | [Ee]2 [Ge] [_Ge]2 [Fd] | [Ec]3 [DB]3 | [CA]3- [CA]2 z || %16
w: will rift the|gloom and let the|sun- shine|thro’. *|
w: will cheer and|bright- en e’en the|dark- est|hours. *|
w: ter free- ly,|then, your bright- est|ev- ery-|where. *|
"^Refrain" [Ec]3 [CE]3 | [Ec]3 [CE]3 | [DF]2 [FA] [FB]2 [_FA] | [Ec]3- [Ec]2 z | [=Dc]3 [DF]3 | %21
w: Smil- ing,|smil- ing,|hap- py ev- ’ry|day; *|Smil- ing,|
w: |||||
w: |||||
 [=Dc]3 [DF]3 | [DB]2 [C=A] [DB]2 [CA] | [DB]3- [DB]2 z | [Ec]2 [Ec] [DB]2 [CA] | %25
w: smil- ing,|up the nar- row|way; *|On the Mount of|
w: ||||
w: ||||
 [Ec]2 [Ec] [EB]2 [EA] | [DF]3 [_GA]3 | [Fd]3- [Fd]2 z | [Ec]2 [Ec] [EB]2 [EB] | %29
w: Pis- gah some day|we shall|stand, *|And with smile of|
w: ||||
w: ||||
 [Ee]2 [Ge] [_Ge]2 [Fd] | [Ec]3 [DB]3 | [CA]3- [CA]2 z |] %32
w: tri- umph view the|prom- ised|land. *|
w: |||
w: |||
V:2
 [A,,A,]2 [A,,A,] [A,,E,]2 [A,,E,] | [A,,A,]2 [A,,A,] [A,,A,]2 [A,,A,] | (A,2 E,) =D,2 F, | %3
w: ~ ~ ~ ~|~ ~ ~ ~|~ * ~ ~|
 [A,,A,]3- [A,,A,]2 z | [B,,E,]2 [B,,E,] [E,B,]2 [E,G,] | [A,,A,]2 [A,,A,] [A,,E,]2 [A,,A,] | %6
w: ~ *|~ ~ ~ ~|~ ~ ~ ~|
 [B,,A,]3 [B,,A,]3 | [E,G,]3- [E,G,]2 z | [A,,A,]2 [A,,A,] [A,,E,]2 [A,,E,] | %9
w: ~ ~|~ *|~ ~ ~ ~|
 [A,,A,]2 [A,,A,] [B,,G,]2 [C,A,] | [D,A,]3 [E,C]3 | [D,A,]3- [D,A,]2 z x2 | %12
w: ~ ~ ~ ~|~ ~|~ *|
 [E,A,]2 [E,A,] [E,G,]2 [D,G,] | [C,A,]2 [C,B,] [C,A,]2 [D,A,] | [E,A,]3 [E,G,]3 | %15
w: ~ ~ ~ ~|~ ~ ~ ~|~ ~|
 [A,,A,]3- [A,,A,]2 z || [A,,A,]2 [A,,A,] z3 | [A,,A,]2 [A,,A,] z3 | %18
w: ~ *|Smil- ing,|smil- ing,|
 [D,A,]2 [D,A,] [D,A,]2 [D,A,] | [A,,A,]2 [A,,A,] [A,,A,]2 z | [B,,A,]2 [B,,A,] z3 | %21
w: hap- py, hap- py|ev- ’ry day;|Smil- ing,|
 [B,,A,]2 [B,,A,] z3 | [E,G,]2 [E,^F,] [E,G,]2 [E,F,] | [E,G,]3- [E,G,]2 z | %24
w: smil- ing,|||
 [A,,A,]2 [A,,A,] [A,,E,]2 [A,,E,] | [A,,A,]2 [A,,A,] [B,,G,]2 [C,A,] | [D,A,]3 [E,C]3 | %27
w: |||
 [D,A,]3- [D,A,]2 z | [E,A,]2 [E,A,] [E,G,]2 [D,G,] | [C,A,]2 [B,,B,] [C,A,]2 [D,A,] | %30
w: |||
 [E,A,]3 [E,G,]3 | [A,,A,]3- [A,,A,]2 z |] %32
w: ||
V:3
 x6 | x6 | A,,3 A,,3 | x6 | x6 | x6 | x6 | x6 | x6 | x6 | x6 | x8 | x6 | x6 | x6 | x6 || x6 | x6 | %18
 x6 | x6 | x6 | x6 | x6 | x6 | x6 | x6 | x6 | x6 | x6 | x6 | x6 | x6 |] %32

